X:1
T:There is no God as foolish men
T:John Farmer
T:Source : The Whole Book of Psalms---London---Musical Antiquarian Society---1844. First publication : London---Th Est(e)---1592. Editor : André Vierendeels (08/09/16).
T:There is no God as foolish men (Ps 14)
T:©
T:©
T:©
C:John Farmer
Z:©
%%score [ 1 2 3 4 ]
L:1/8
Q:1/4=109
M:4/4
K:C
V:1 treble nm="Soprano 1" snm="S 1"
V:2 treble nm="Soprano 2" snm="S 2"
V:3 treble nm="Alto" snm="A"
V:4 treble-8 nm="Tenor" snm="T"
V:1
 f4 e2 d2 | c3 B A2 d2- | d2 ^c2 d4 || z2 f2 d2 e2 | c2 d2 ^c4 || e4 f2 e2 | d6 c2 | B2 c2 d4 || %8
w: There is no|God as fool- *|* ish men,|af- firm in|their mad mood,|their drifts are|all cor-|rupt and vain,|
 g2 g4 f2 | e2 d2 c4 | A4 A3 B | c2 d2 e2 e2 | e8 || e2 d4 ^c2 | e2 fd ^c4 || z2 e4 d2- | %16
w: not one of|them doth good,|the Lord be-|held from hea- ven|high,|the whole race|of man- * kind,|and saw|
 d2 ^c2 d4 | e2 cA d4 || e2 d3 c c2- | c2 B2 !fermata!c4 |] %20
w: _ not one|that sought in deed,|the liv- ing God|_ to find.|
V:2
 A4 G3 F | E2 A4 G2 | A4 ^F4 || c2 A2 _B2 A2- | A2 G2 A4 || z4 A4 | _B2 A2 G3 G | G2 E2 G4 || %8
w: There is no|God as fool-|ish men,|af- firm in their|_ mad mood,|their|drifts are all cor-|rupt and vain,|
 G2 c3 _B A2 | G3 F E4 | F4 E2 A2 | A3 B c2 A2 | ^G8 || A2 A4 A2 | A2 A2 A4 || c4 c2 A2 | %16
w: not one _ of|them doth good,|the Lord be-|held from hea- ven|high,|the whole race|of man- kind,|and saw not|
 A2 A4 G2- | G2 ^F2 G4 || z2 B2 A2 G2 | G3 F !fermata!E4 |] %20
w: one that sought|_ in deed,|the liv- ing|God to find.|
V:3
 C4 C2 B,2 | C4 D4 | E2 E2 D4 || E2 F4 E2 | E2 D2 E4 || C4 D2 E2 | F4 E4 | D2 C2 B,4 || E4 D2 C2 | %9
w: There is no|God as|fool- ish men,|af- firm in|their mad mood,|their drifts are|all cor-|rupt and vain,|not one of|
 C2 B,2 C4 | C4 C2 D2 | E2 D2 C2 C2 | B,8 || C2 F4 E2 | E2 D2 E4 || E4 G2 F2 | E4 D4 | %17
w: them doth good,|the Lord be-|held from hea- ven|high,|the whole race|of man- kind,|and saw not|one that|
 C2 A,2 B,4 || C2 D4 E2 | D2 D2 !fermata!C4 |] %20
w: sought in deed,|the liv- ing|God to find.|
V:4
 F4 G2 G2 | A4 F2 _B2 | A4 D4 || A2 d4 c2 | A2 _B2 A4 || A4 D2 A2 | d4 G2 E2 | G2 A2 G4 || %8
w: There is no|God as fool-|ish men,|af- firm in|their mad mood,|their drifts are|all _ cor-|rupt and vain,|
 E4 F3 F | G2 G2 C4 | F2 FG A4 | A4 A2 A2 | E8 || A2 D4 A2 | ^c2 d2 A4 || A2 c4 d2 | A4 d2 B2 | %17
w: not one of|them doth good,|the Lord be- held|from hea- ven|high,|the whole race|of man- kind,|and saw not|one that sought|
 A4 G4 || C2 G2 F2 E2 | G4 !fermata!C4 |] %20
w: in deed,|the liv- ing God|to find.|

